images/logo.svg

<svg width="276" height="45" viewBox="0 0 276 45" fill="none" xmlns="http://www.w3.org/2000/svg">
<rect width="276" height="45" rx="7" fill="white"/>
<path d="M8.28 31C8.12 31 7.976 30.944 7.848 30.832C7.736 30.704 7.68 30.56 7.68 30.4V14.8C7.68 14.624 7.736 14.48 7.848 14.368C7.976 14.256 8.12 14.2 8.28 14.2H10.824C11.224 14.2 11.496 14.352 11.64 14.656L17.496 23.872V14.8C17.496 14.624 17.552 14.48 17.664 14.368C17.792 14.256 17.936 14.2 18.096 14.2H20.976C21.152 14.2 21.296 14.256 21.408 14.368C21.52 14.48 21.576 14.624 21.576 14.8V30.376C21.576 30.552 21.52 30.704 21.408 30.832C21.296 30.944 21.152 31 20.976 31H18.408C18.056 31 17.792 30.848 17.616 30.544L11.76 21.664V30.4C11.76 30.56 11.704 30.704 11.592 30.832C11.48 30.944 11.336 31 11.16 31H8.28ZM23.97 31C23.842 31 23.722 30.952 23.61 30.856C23.514 30.744 23.466 30.624 23.466 30.496C23.466 30.4 23.474 30.328 23.49 30.28L29.13 14.872C29.178 14.68 29.282 14.52 29.442 14.392C29.602 14.264 29.81 14.2 30.066 14.2H33.618C33.874 14.2 34.082 14.264 34.242 14.392C34.402 14.52 34.506 14.68 34.554 14.872L40.17 30.28L40.218 30.496C40.218 30.624 40.162 30.744 40.05 30.856C39.954 30.952 39.834 31 39.69 31H36.738C36.354 31 36.098 30.832 35.97 30.496L35.034 28.048H28.626L27.714 30.496C27.586 30.832 27.322 31 26.922 31H23.97ZM34.074 24.592L31.842 18.256L29.61 24.592H34.074ZM42.7097 31C42.5497 31 42.4057 30.944 42.2777 30.832C42.1657 30.704 42.1097 30.56 42.1097 30.4V14.8C42.1097 14.624 42.1657 14.48 42.2777 14.368C42.4057 14.256 42.5497 14.2 42.7097 14.2H45.3017C45.6857 14.2 45.9657 14.376 46.1417 14.728L50.3657 22.288L54.5897 14.728C54.7657 14.376 55.0457 14.2 55.4297 14.2H57.9977C58.1737 14.2 58.3177 14.256 58.4297 14.368C58.5577 14.48 58.6217 14.624 58.6217 14.8V30.4C58.6217 30.576 58.5577 30.72 58.4297 30.832C58.3177 30.944 58.1737 31 57.9977 31H55.1417C54.9657 31 54.8137 30.944 54.6857 30.832C54.5737 30.72 54.5177 30.576 54.5177 30.4V21.4L51.8297 26.416C51.6217 26.784 51.3417 26.968 50.9897 26.968H49.7417C49.5337 26.968 49.3657 26.92 49.2377 26.824C49.1097 26.728 48.9977 26.592 48.9017 26.416L46.1897 21.4V30.4C46.1897 30.56 46.1337 30.704 46.0217 30.832C45.9097 30.944 45.7657 31 45.5897 31H42.7097ZM61.0247 31C60.8967 31 60.7767 30.952 60.6647 30.856C60.5687 30.744 60.5207 30.624 60.5207 30.496C60.5207 30.4 60.5287 30.328 60.5447 30.28L66.1847 14.872C66.2327 14.68 66.3367 14.52 66.4967 14.392C66.6567 14.264 66.8647 14.2 67.1207 14.2H70.6727C70.9287 14.2 71.1367 14.264 71.2967 14.392C71.4567 14.52 71.5607 14.68 71.6087 14.872L77.2247 30.28L77.2727 30.496C77.2727 30.624 77.2167 30.744 77.1047 30.856C77.0087 30.952 76.8887 31 76.7447 31H73.7927C73.4087 31 73.1527 30.832 73.0247 30.496L72.0887 28.048H65.6807L64.7687 30.496C64.6407 30.832 64.3767 31 63.9767 31H61.0247ZM71.1287 24.592L68.8967 18.256L66.6647 24.592H71.1287ZM79.7644 31C79.6044 31 79.4604 30.944 79.3324 30.832C79.2204 30.704 79.1644 30.56 79.1644 30.4V14.8C79.1644 14.624 79.2204 14.48 79.3324 14.368C79.4604 14.256 79.6044 14.2 79.7644 14.2H82.3084C82.7084 14.2 82.9804 14.352 83.1244 14.656L88.9804 23.872V14.8C88.9804 14.624 89.0364 14.48 89.1484 14.368C89.2764 14.256 89.4204 14.2 89.5804 14.2H92.4604C92.6364 14.2 92.7804 14.256 92.8924 14.368C93.0044 14.48 93.0604 14.624 93.0604 14.8V30.376C93.0604 30.552 93.0044 30.704 92.8924 30.832C92.7804 30.944 92.6364 31 92.4604 31H89.8924C89.5404 31 89.2764 30.848 89.1004 30.544L83.2444 21.664V30.4C83.2444 30.56 83.1884 30.704 83.0764 30.832C82.9644 30.944 82.8204 31 82.6444 31H79.7644ZM103.35 31.24C101.046 31.24 99.2464 30.68 97.9504 29.56C96.6544 28.424 95.9664 26.816 95.8864 24.736C95.8704 24.272 95.8624 23.536 95.8624 22.528C95.8624 21.52 95.8704 20.784 95.8864 20.32C95.9664 18.288 96.6624 16.72 97.9744 15.616C99.3024 14.512 101.094 13.96 103.35 13.96C104.87 13.96 106.19 14.208 107.31 14.704C108.446 15.2 109.31 15.832 109.902 16.6C110.51 17.368 110.83 18.16 110.862 18.976C110.862 19.12 110.806 19.24 110.694 19.336C110.598 19.432 110.478 19.48 110.334 19.48H106.83C106.67 19.48 106.542 19.456 106.446 19.408C106.35 19.36 106.27 19.272 106.206 19.144C105.998 18.68 105.67 18.28 105.222 17.944C104.774 17.592 104.15 17.416 103.35 17.416C101.446 17.416 100.446 18.424 100.35 20.44C100.334 20.888 100.326 21.584 100.326 22.528C100.326 23.456 100.334 24.152 100.35 24.616C100.446 26.728 101.47 27.784 103.422 27.784C104.366 27.784 105.118 27.544 105.678 27.064C106.254 26.568 106.542 25.816 106.542 24.808V24.352H104.286C104.11 24.352 103.966 24.296 103.854 24.184C103.742 24.056 103.686 23.904 103.686 23.728V21.952C103.686 21.776 103.742 21.632 103.854 21.52C103.966 21.392 104.11 21.328 104.286 21.328H110.334C110.51 21.328 110.654 21.392 110.766 21.52C110.878 21.632 110.934 21.776 110.934 21.952V24.688C110.934 26.048 110.622 27.224 109.998 28.216C109.374 29.192 108.486 29.944 107.334 30.472C106.198 30.984 104.87 31.24 103.35 31.24ZM112.353 31C112.225 31 112.105 30.952 111.993 30.856C111.897 30.744 111.849 30.624 111.849 30.496C111.849 30.4 111.857 30.328 111.873 30.28L117.513 14.872C117.561 14.68 117.665 14.52 117.825 14.392C117.985 14.264 118.193 14.2 118.449 14.2H122.001C122.257 14.2 122.465 14.264 122.625 14.392C122.785 14.52 122.889 14.68 122.937 14.872L128.553 30.28L128.601 30.496C128.601 30.624 128.545 30.744 128.433 30.856C128.337 30.952 128.217 31 128.073 31H125.121C124.737 31 124.481 30.832 124.353 30.496L123.417 28.048H117.009L116.097 30.496C115.969 30.832 115.705 31 115.305 31H112.353ZM122.457 24.592L120.225 18.256L117.993 24.592H122.457ZM131.093 31C130.933 31 130.789 30.944 130.661 30.832C130.549 30.704 130.493 30.56 130.493 30.4V14.8C130.493 14.624 130.549 14.48 130.661 14.368C130.789 14.256 130.933 14.2 131.093 14.2H133.637C134.037 14.2 134.309 14.352 134.453 14.656L140.309 23.872V14.8C140.309 14.624 140.365 14.48 140.477 14.368C140.605 14.256 140.749 14.2 140.909 14.2H143.789C143.965 14.2 144.109 14.256 144.221 14.368C144.333 14.48 144.389 14.624 144.389 14.8V30.376C144.389 30.552 144.333 30.704 144.221 30.832C144.109 30.944 143.965 31 143.789 31H141.221C140.869 31 140.605 30.848 140.429 30.544L134.573 21.664V30.4C134.573 30.56 134.517 30.704 134.405 30.832C134.293 30.944 134.149 31 133.973 31H131.093ZM148.343 31C148.183 31 148.039 30.944 147.911 30.832C147.799 30.704 147.743 30.56 147.743 30.4V14.8C147.743 14.624 147.799 14.48 147.911 14.368C148.039 14.256 148.183 14.2 148.343 14.2H151.511C151.687 14.2 151.831 14.256 151.943 14.368C152.055 14.48 152.111 14.624 152.111 14.8V27.376H159.383C159.559 27.376 159.703 27.44 159.815 27.568C159.927 27.68 159.983 27.824 159.983 28V30.4C159.983 30.56 159.927 30.704 159.815 30.832C159.703 30.944 159.559 31 159.383 31H148.343ZM162.663 31C162.503 31 162.359 30.944 162.231 30.832C162.119 30.704 162.063 30.56 162.063 30.4V14.8C162.063 14.624 162.119 14.48 162.231 14.368C162.359 14.256 162.503 14.2 162.663 14.2H165.879C166.055 14.2 166.199 14.256 166.311 14.368C166.439 14.48 166.503 14.624 166.503 14.8V30.4C166.503 30.576 166.439 30.72 166.311 30.832C166.199 30.944 166.055 31 165.879 31H162.663ZM170.444 31C170.284 31 170.14 30.944 170.012 30.832C169.9 30.704 169.844 30.56 169.844 30.4V14.8C169.844 14.624 169.9 14.48 170.012 14.368C170.14 14.256 170.284 14.2 170.444 14.2H173.468C173.644 14.2 173.788 14.256 173.9 14.368C174.012 14.48 174.068 14.624 174.068 14.8V20.128L178.508 14.656C178.7 14.352 179.012 14.2 179.444 14.2H182.9C183.044 14.2 183.164 14.256 183.26 14.368C183.356 14.464 183.404 14.576 183.404 14.704C183.404 14.816 183.38 14.912 183.332 14.992L177.572 22.24L183.764 30.208C183.828 30.272 183.86 30.368 183.86 30.496C183.86 30.624 183.812 30.744 183.716 30.856C183.62 30.952 183.5 31 183.356 31H179.78C179.396 31 179.076 30.84 178.82 30.52L174.068 24.592V30.4C174.068 30.576 174.012 30.72 173.9 30.832C173.788 30.944 173.644 31 173.468 31H170.444ZM186.358 31C186.198 31 186.054 30.944 185.926 30.832C185.814 30.704 185.758 30.56 185.758 30.4V14.8C185.758 14.624 185.814 14.48 185.926 14.368C186.054 14.256 186.198 14.2 186.358 14.2H189.526C189.702 14.2 189.846 14.256 189.958 14.368C190.07 14.48 190.126 14.624 190.126 14.8V27.376H197.398C197.574 27.376 197.718 27.44 197.83 27.568C197.942 27.68 197.998 27.824 197.998 28V30.4C197.998 30.56 197.942 30.704 197.83 30.832C197.718 30.944 197.574 31 197.398 31H186.358ZM199.118 31C198.99 31 198.87 30.952 198.758 30.856C198.662 30.744 198.614 30.624 198.614 30.496C198.614 30.4 198.622 30.328 198.638 30.28L204.278 14.872C204.326 14.68 204.43 14.52 204.59 14.392C204.75 14.264 204.958 14.2 205.214 14.2H208.766C209.022 14.2 209.23 14.264 209.39 14.392C209.55 14.52 209.654 14.68 209.702 14.872L215.318 30.28L215.366 30.496C215.366 30.624 215.31 30.744 215.198 30.856C215.102 30.952 214.982 31 214.838 31H211.886C211.502 31 211.246 30.832 211.118 30.496L210.182 28.048H203.774L202.862 30.496C202.734 30.832 202.47 31 202.07 31H199.118ZM209.222 24.592L206.99 18.256L204.758 24.592H209.222ZM217.858 31C217.698 31 217.554 30.944 217.426 30.832C217.314 30.704 217.258 30.56 217.258 30.4V14.8C217.258 14.624 217.314 14.48 217.426 14.368C217.554 14.256 217.698 14.2 217.858 14.2H224.386C226.482 14.2 228.114 14.68 229.282 15.64C230.466 16.584 231.058 17.928 231.058 19.672C231.058 20.792 230.794 21.744 230.266 22.528C229.738 23.312 229.01 23.912 228.082 24.328L231.37 30.232C231.418 30.328 231.442 30.416 231.442 30.496C231.442 30.624 231.386 30.744 231.274 30.856C231.178 30.952 231.066 31 230.938 31H227.746C227.282 31 226.954 30.784 226.762 30.352L224.026 25.072H221.578V30.4C221.578 30.576 221.514 30.72 221.386 30.832C221.274 30.944 221.13 31 220.954 31H217.858ZM224.338 21.664C225.074 21.664 225.634 21.488 226.018 21.136C226.402 20.768 226.594 20.264 226.594 19.624C226.594 18.984 226.402 18.48 226.018 18.112C225.65 17.728 225.09 17.536 224.338 17.536H221.578V21.664H224.338ZM238.889 31C238.713 31 238.561 30.944 238.433 30.832C238.321 30.72 238.265 30.576 238.265 30.4V28.696C238.265 28.216 238.465 27.824 238.865 27.52L241.361 25.072C242.817 23.952 243.921 23.08 244.673 22.456C245.425 21.832 245.993 21.264 246.377 20.752C246.761 20.24 246.953 19.752 246.953 19.288C246.953 18.024 246.329 17.392 245.081 17.392C244.425 17.392 243.921 17.592 243.569 17.992C243.217 18.376 242.985 18.864 242.873 19.456C242.777 19.824 242.505 20.008 242.057 20.008H239.057C238.913 20.008 238.793 19.96 238.697 19.864C238.601 19.768 238.553 19.648 238.553 19.504C238.585 18.48 238.865 17.544 239.393 16.696C239.937 15.832 240.697 15.152 241.673 14.656C242.665 14.144 243.801 13.888 245.081 13.888C246.425 13.888 247.577 14.104 248.537 14.536C249.497 14.968 250.225 15.576 250.721 16.36C251.217 17.144 251.465 18.056 251.465 19.096C251.465 20.216 251.113 21.24 250.409 22.168C249.721 23.08 248.665 24.072 247.241 25.144L245.033 27.376H251.201C251.377 27.376 251.521 27.432 251.633 27.544C251.761 27.656 251.825 27.8 251.825 27.976V30.4C251.825 30.576 251.761 30.72 251.633 30.832C251.521 30.944 251.377 31 251.201 31H238.889ZM262.109 31C261.949 31 261.805 30.944 261.677 30.832C261.565 30.704 261.509 30.56 261.509 30.4V27.688H254.045C253.869 27.688 253.725 27.632 253.613 27.52C253.501 27.408 253.445 27.264 253.445 27.088V24.808C253.445 24.568 253.533 24.32 253.709 24.064L260.693 14.608C260.917 14.336 261.213 14.2 261.581 14.2H265.085C265.261 14.2 265.405 14.256 265.517 14.368C265.629 14.48 265.685 14.624 265.685 14.8V24.112H267.797C267.989 24.112 268.141 24.176 268.253 24.304C268.365 24.416 268.421 24.552 268.421 24.712V27.088C268.421 27.264 268.365 27.408 268.253 27.52C268.141 27.632 267.997 27.688 267.821 27.688H265.685V30.4C265.685 30.56 265.629 30.704 265.517 30.832C265.405 30.944 265.261 31 265.085 31H262.109ZM261.605 24.28V18.616L257.573 24.28H261.605Z" fill="#7296EE"/>
</svg>

<svg width="276" height="45" fill="none" xmlns="http://www.w3.org/2000/svg"><rect width="276" height="45" rx="7" fill="#fff"/><path d="M8.28 31a.639.639 0 0 1-.432-.168.639.639 0 0 1-.168-.432V14.8c0-.176.056-.32.168-.432a.639.639 0 0 1 .432-.168h2.544c.4 0 .672.152.816.456l5.856 9.216V14.8c0-.176.056-.32.168-.432a.639.639 0 0 1 .432-.168h2.88c.176 0 .32.056.432.168a.585.585 0 0 1 .168.432v15.576a.67.67 0 0 1-.168.456.585.585 0 0 1-.432.168h-2.568a.858.858 0 0 1-.792-.456l-5.856-8.88V30.4c0 .16-.056.304-.168.432a.585.585 0 0 1-.432.168H8.28Zm15.69 0a.544.544 0 0 1-.36-.144.544.544 0 0 1-.144-.36c0-.096.008-.168.024-.216l5.64-15.408a.872.872 0 0 1 .312-.48c.16-.128.368-.192.624-.192h3.552c.256 0 .464.064.624.192.16.128.264.288.312.48L40.17 30.28l.048.216a.505.505 0 0 1-.168.36.488.488 0 0 1-.36.144h-2.952c-.384 0-.64-.168-.768-.504l-.936-2.448h-6.408l-.912 2.448c-.128.336-.392.504-.792.504H23.97Zm10.104-6.408-2.232-6.336-2.232 6.336h4.464ZM42.71 31a.639.639 0 0 1-.432-.168.639.639 0 0 1-.168-.432V14.8c0-.176.056-.32.168-.432a.639.639 0 0 1 .432-.168h2.592c.384 0 .664.176.84.528l4.224 7.56 4.224-7.56c.176-.352.456-.528.84-.528h2.568c.176 0 .32.056.432.168a.548.548 0 0 1 .192.432v15.6c0 .176-.064.32-.192.432a.585.585 0 0 1-.432.168h-2.856a.67.67 0 0 1-.456-.168.585.585 0 0 1-.168-.432v-9l-2.688 5.016c-.208.368-.488.552-.84.552h-1.248c-.208 0-.376-.048-.504-.144a1.242 1.242 0 0 1-.336-.408L46.19 21.4v9c0 .16-.056.304-.168.432a.585.585 0 0 1-.432.168h-2.88Zm18.315 0a.544.544 0 0 1-.36-.144.544.544 0 0 1-.144-.36c0-.096.008-.168.024-.216l5.64-15.408a.872.872 0 0 1 .312-.48c.16-.128.368-.192.624-.192h3.552c.256 0 .464.064.624.192.16.128.264.288.312.48l5.616 15.408.048.216a.505.505 0 0 1-.168.36.488.488 0 0 1-.36.144h-2.952c-.384 0-.64-.168-.768-.504l-.936-2.448H65.68l-.912 2.448c-.128.336-.392.504-.792.504h-2.952Zm10.104-6.408-2.232-6.336-2.232 6.336h4.464ZM79.764 31a.639.639 0 0 1-.432-.168.639.639 0 0 1-.168-.432V14.8c0-.176.056-.32.168-.432a.639.639 0 0 1 .432-.168h2.544c.4 0 .672.152.816.456l5.856 9.216V14.8c0-.176.056-.32.168-.432a.639.639 0 0 1 .432-.168h2.88c.176 0 .32.056.432.168a.585.585 0 0 1 .168.432v15.576a.67.67 0 0 1-.168.456.585.585 0 0 1-.432.168h-2.568a.858.858 0 0 1-.792-.456l-5.856-8.88V30.4c0 .16-.056.304-.168.432a.585.585 0 0 1-.432.168h-2.88Zm23.586.24c-2.304 0-4.104-.56-5.4-1.68-1.296-1.136-1.984-2.744-2.064-4.824-.016-.464-.024-1.2-.024-2.208 0-1.008.008-1.744.024-2.208.08-2.032.776-3.6 2.088-4.704 1.328-1.104 3.12-1.656 5.376-1.656 1.52 0 2.84.248 3.96.744 1.136.496 2 1.128 2.592 1.896.608.768.928 1.56.96 2.376a.455.455 0 0 1-.168.36.488.488 0 0 1-.36.144h-3.504a.865.865 0 0 1-.384-.072.559.559 0 0 1-.24-.264 3.058 3.058 0 0 0-.984-1.2c-.448-.352-1.072-.528-1.872-.528-1.904 0-2.904 1.008-3 3.024a64.86 64.86 0 0 0-.024 2.088c0 .928.008 1.624.024 2.088.096 2.112 1.12 3.168 3.072 3.168.944 0 1.696-.24 2.256-.72.576-.496.864-1.248.864-2.256v-.456h-2.256a.585.585 0 0 1-.432-.168.67.67 0 0 1-.168-.456v-1.776c0-.176.056-.32.168-.432a.548.548 0 0 1 .432-.192h6.048c.176 0 .32.064.432.192a.585.585 0 0 1 .168.432v2.736c0 1.36-.312 2.536-.936 3.528-.624.976-1.512 1.728-2.664 2.256-1.136.512-2.464.768-3.984.768Zm9.003-.24a.544.544 0 0 1-.36-.144.544.544 0 0 1-.144-.36c0-.096.008-.168.024-.216l5.64-15.408a.872.872 0 0 1 .312-.48c.16-.128.368-.192.624-.192h3.552c.256 0 .464.064.624.192.16.128.264.288.312.48l5.616 15.408.048.216a.505.505 0 0 1-.168.36.488.488 0 0 1-.36.144h-2.952c-.384 0-.64-.168-.768-.504l-.936-2.448h-6.408l-.912 2.448c-.128.336-.392.504-.792.504h-2.952Zm10.104-6.408-2.232-6.336-2.232 6.336h4.464ZM131.093 31a.639.639 0 0 1-.432-.168.639.639 0 0 1-.168-.432V14.8c0-.176.056-.32.168-.432a.639.639 0 0 1 .432-.168h2.544c.4 0 .672.152.816.456l5.856 9.216V14.8c0-.176.056-.32.168-.432a.639.639 0 0 1 .432-.168h2.88c.176 0 .32.056.432.168a.585.585 0 0 1 .168.432v15.576a.67.67 0 0 1-.168.456.585.585 0 0 1-.432.168h-2.568a.858.858 0 0 1-.792-.456l-5.856-8.88V30.4c0 .16-.056.304-.168.432a.585.585 0 0 1-.432.168h-2.88Zm17.25 0a.639.639 0 0 1-.432-.168.639.639 0 0 1-.168-.432V14.8c0-.176.056-.32.168-.432a.639.639 0 0 1 .432-.168h3.168c.176 0 .32.056.432.168a.585.585 0 0 1 .168.432v12.576h7.272c.176 0 .32.064.432.192a.585.585 0 0 1 .168.432v2.4c0 .16-.056.304-.168.432a.585.585 0 0 1-.432.168h-11.04Zm14.32 0a.639.639 0 0 1-.432-.168.639.639 0 0 1-.168-.432V14.8c0-.176.056-.32.168-.432a.639.639 0 0 1 .432-.168h3.216c.176 0 .32.056.432.168a.548.548 0 0 1 .192.432v15.6c0 .176-.064.32-.192.432a.585.585 0 0 1-.432.168h-3.216Zm7.781 0a.639.639 0 0 1-.432-.168.639.639 0 0 1-.168-.432V14.8c0-.176.056-.32.168-.432a.639.639 0 0 1 .432-.168h3.024c.176 0 .32.056.432.168a.585.585 0 0 1 .168.432v5.328l4.44-5.472c.192-.304.504-.456.936-.456h3.456c.144 0 .264.056.36.168a.46.46 0 0 1 .144.336.55.55 0 0 1-.072.288l-5.76 7.248 6.192 7.968c.064.064.096.16.096.288a.544.544 0 0 1-.144.36.488.488 0 0 1-.36.144h-3.576c-.384 0-.704-.16-.96-.48l-4.752-5.928V30.4c0 .176-.056.32-.168.432a.585.585 0 0 1-.432.168h-3.024Zm15.914 0a.639.639 0 0 1-.432-.168.639.639 0 0 1-.168-.432V14.8c0-.176.056-.32.168-.432a.639.639 0 0 1 .432-.168h3.168c.176 0 .32.056.432.168a.585.585 0 0 1 .168.432v12.576h7.272c.176 0 .32.064.432.192a.585.585 0 0 1 .168.432v2.4c0 .16-.056.304-.168.432a.585.585 0 0 1-.432.168h-11.04Zm12.76 0a.544.544 0 0 1-.36-.144.544.544 0 0 1-.144-.36c0-.096.008-.168.024-.216l5.64-15.408a.872.872 0 0 1 .312-.48c.16-.128.368-.192.624-.192h3.552c.256 0 .464.064.624.192.16.128.264.288.312.48l5.616 15.408.048.216a.505.505 0 0 1-.168.36.488.488 0 0 1-.36.144h-2.952c-.384 0-.64-.168-.768-.504l-.936-2.448h-6.408l-.912 2.448c-.128.336-.392.504-.792.504h-2.952Zm10.104-6.408-2.232-6.336-2.232 6.336h4.464ZM217.858 31a.639.639 0 0 1-.432-.168.639.639 0 0 1-.168-.432V14.8c0-.176.056-.32.168-.432a.639.639 0 0 1 .432-.168h6.528c2.096 0 3.728.48 4.896 1.44 1.184.944 1.776 2.288 1.776 4.032 0 1.12-.264 2.072-.792 2.856-.528.784-1.256 1.384-2.184 1.8l3.288 5.904a.597.597 0 0 1 .072.264.505.505 0 0 1-.168.36.46.46 0 0 1-.336.144h-3.192c-.464 0-.792-.216-.984-.648l-2.736-5.28h-2.448V30.4c0 .176-.064.32-.192.432a.585.585 0 0 1-.432.168h-3.096Zm6.48-9.336c.736 0 1.296-.176 1.68-.528.384-.368.576-.872.576-1.512s-.192-1.144-.576-1.512c-.368-.384-.928-.576-1.68-.576h-2.76v4.128h2.76ZM238.889 31a.67.67 0 0 1-.456-.168.585.585 0 0 1-.168-.432v-1.704c0-.48.2-.872.6-1.176l2.496-2.448c1.456-1.12 2.56-1.992 3.312-2.616.752-.624 1.32-1.192 1.704-1.704.384-.512.576-1 .576-1.464 0-1.264-.624-1.896-1.872-1.896-.656 0-1.16.2-1.512.6-.352.384-.584.872-.696 1.464-.096.368-.368.552-.816.552h-3a.488.488 0 0 1-.504-.504 5.546 5.546 0 0 1 .84-2.808c.544-.864 1.304-1.544 2.28-2.04.992-.512 2.128-.768 3.408-.768 1.344 0 2.496.216 3.456.648.96.432 1.688 1.04 2.184 1.824.496.784.744 1.696.744 2.736 0 1.12-.352 2.144-1.056 3.072-.688.912-1.744 1.904-3.168 2.976l-2.208 2.232h6.168c.176 0 .32.056.432.168a.548.548 0 0 1 .192.432V30.4c0 .176-.064.32-.192.432a.585.585 0 0 1-.432.168h-12.312Zm23.22 0a.639.639 0 0 1-.432-.168.639.639 0 0 1-.168-.432v-2.712h-7.464a.585.585 0 0 1-.432-.168.585.585 0 0 1-.168-.432v-2.28c0-.24.088-.488.264-.744l6.984-9.456c.224-.272.52-.408.888-.408h3.504c.176 0 .32.056.432.168a.585.585 0 0 1 .168.432v9.312h2.112c.192 0 .344.064.456.192a.555.555 0 0 1 .168.408v2.376c0 .176-.056.32-.168.432a.585.585 0 0 1-.432.168h-2.136V30.4c0 .16-.056.304-.168.432a.585.585 0 0 1-.432.168h-2.976Zm-.504-6.72v-5.664l-4.032 5.664h4.032Z" fill="#7296EE"/></svg>
